icons/triangle-plus.svg

<svg xmlns="http://www.w3.org/2000/svg" width="24" height="24" viewBox="0 0 24 24">
  <path d="M9.37135227,3.70432092 C10.1698214,2.25255887 11.9939942,1.72296031 13.4457562,2.52142944 C13.9442354,2.79559297 14.3544842,3.20584177 14.6286477,3.70432092 L14.6286477,3.70432092 L22.2461053,17.5542438 C23.0445744,19.0060058 22.5149759,20.8301786 21.0632138,21.6286477 C20.6202789,21.8722619 20.1229665,22 19.6174576,22 L19.6174576,22 L4.38254244,22 C2.72568819,22 1.38254244,20.6568542 1.38254244,19 C1.38254244,18.4944911 1.5102805,17.9971787 1.75389472,17.5542438 L1.75389472,17.5542438 Z M12,10 C11.4477153,10 11,10.4477153 11,11 L11,11 L10.999,13 L9,13 L8.88337887,13.0067277 C8.38604019,13.0644928 8,13.4871642 8,14 C8,14.5522847 8.44771525,15 9,15 L9,15 L10.999,15 L11,17 L11.0067277,17.1166211 C11.0644928,17.6139598 11.4871642,18 12,18 C12.5522847,18 13,17.5522847 13,17 L13,17 L12.999,15 L15,15 L15.1166211,14.9932723 C15.6139598,14.9355072 16,14.5128358 16,14 C16,13.4477153 15.5522847,13 15,13 L15,13 L12.999,13 L13,11 L12.9932723,10.8833789 C12.9355072,10.3860402 12.5128358,10 12,10 Z"/>
</svg>

<svg xmlns="http://www.w3.org/2000/svg" viewBox="0 0 24 24">
  <path d="M9.37 3.7a3 3 0 0 1 5.26 0l7.62 13.85A3 3 0 0 1 19.62 22H4.38a3 3 0 0 1-2.63-4.45zM12 10a1 1 0 0 0-1 1v2H8.88A1 1 0 0 0 9 15h2v2.12a1 1 0 0 0 2-.12v-2h2.12a1 1 0 0 0-.12-2h-2v-2.12a1 1 0 0 0-1-.88z"/>
</svg>
